public/icons/paint_icon.svg

<svg xmlns="http://www.w3.org/2000/svg" width="330" height="330" fill="none" viewBox="0 0 330 330"><path fill="#000" d="M204.542 26c3.509.107 6.862.436 10.183 1.635 20.551 7.417 13.887 27.586 9.281 43.364-3.916 13.416-13.925 41.454-14.787 53.99-.223 3.263.424 6.776 1.876 9.714 5.841 11.809 22.518 10.274 33.226 14.12 5.743 2.062 10.061 5.545 12.563 11.187 3.093 6.973-.87 28.406-4.262 35.107-.969 1.916-2.623 1.914-4.514 2.407-2.966 2.837-4.444 15.865-5.459 20.313-4.303 18.871-14.288 73.527-31 83.683-6.097 3.705-12.877 2.893-19.498 1.332-4.283-1.009-11.119-1.737-13.58-5.715-.506-3.694 1.547-8.568 2.569-12.152a834 834 0 0 1-10.676 11.34l-14.814-4.065c-13.293-3.623-82.675-20.093-88.65-23.928 1.442-9.761 10.293-23.072 14.315-32.53 3.296-7.753 23.462-64.571 21.882-68.521-.796-1.991-3.54-2.668-3.811-4.984-.793-6.762 4.629-24.729 8.44-30.306 11.189-16.373 32.539-.473 47.442-3.587 5.359-1.12 9.3-4.835 11.837-9.566 3.199-5.962 4.161-13.237 5.509-19.81 2.945-14.374 8.583-53.44 15.812-63.892 4.027-5.823 9.383-7.864 16.116-9.136"/><path fill="#fed100" d="M204.6 34.026q1.312.058 2.619.183c3.993.394 8.068 1.936 10.551 5.243 2.348 3.13 3.025 7.123 2.794 10.944-.381 6.323-2.946 13.097-4.715 19.178-4.866 16.725-11.509 34.315-14.457 51.45-6.513 37.865 38.465 27.76 46.703 40.218 4.457 6.74-.38 20.135-2.067 27.521-20.261-5.227-41.146-9.05-61.606-13.51l-76.554-16.445c1.598-6.194 2.121-13.751 4.991-19.465 7.3-14.533 32.899 1.256 48.326-4.255 5.78-2.065 10.153-6.35 13.046-11.696 5.811-10.741 11.25-46.8 14.25-61.333 1.351-6.541 2.327-13.502 5.34-19.523 2.503-4.998 5.59-6.829 10.779-8.51m-104.108 173.12c1.624-.02 3.247-.077 4.872-.018 9.068.33 11.829 11.943 17.172 17.508 2.61 2.719 5.912 4.459 9.539 5.397 15.509 4.011 21.679-11.978 34.935-11.347 9.5.452 12.568 14.735 18.251 20.771 12.846 13.64 22.029 1.274 34.783 1.984 2.546.142 5.607 1.123 7.253 3.018a61 61 0 0 1-.79 4.422c-2.347 10.834-9.843 39.799-18.82 45.336-6.147 3.792-14.066.709-20.414-.936 1.504-5.909 2.694-11.837 3.82-17.828.343-2.027.807-4.184.859-6.238.052-2.023-.578-3.034-1.874-4.472-6.203-.092-17.137 17.522-22.342 22.479-19.241-6.151-39.466-10.78-59.065-15.73 3.179-5.743 10.164-17.31 8.679-23.835-1.222-1.456-1.283-1.671-3.213-2.167-5.874 3.9-10.246 17.431-13.798 23.821-7.866-1.974-15.83-3.655-23.736-5.469 10.025-18.392 17.098-36.947 23.889-56.696"/><path fill="#fefefe" d="M111.234 167.824c42.27 10.238 85.309 18.441 127.832 27.668a1678 1678 0 0 1-9.247 40.62c-4.553-2.128-8.531-3.114-13.566-3.365-4.475 1.356-8.81 4.136-13.582 4.228-1.461.029-2.914.055-4.371-.085-12.543-1.208-10.944-12.762-17.429-20.238-2.618-3.018-6.171-4.634-10.025-5.451-16.394-3.475-22.294 12.35-34.824 11.009-9.895-1.06-11.747-10.17-17.087-16.733-4.308-5.295-9.211-6.269-15.742-6.878 3.199-10.133 6.23-20.291 8.041-30.775"/></svg>

<svg width="330" height="330" viewBox="0 0 330 330" fill="none" xmlns="http://www.w3.org/2000/svg">
<path d="M204.542 26C208.051 26.1065 211.404 26.4361 214.725 27.635C235.276 35.0517 228.612 55.2215 224.006 70.9985C220.09 84.4154 210.081 112.453 209.219 124.989C208.996 128.252 209.643 131.765 211.095 134.703C216.936 146.512 233.613 144.977 244.321 148.823C250.064 150.885 254.382 154.368 256.884 160.01C259.977 166.983 256.014 188.416 252.622 195.117C251.653 197.033 249.999 197.031 248.108 197.524C245.142 200.361 243.664 213.389 242.649 217.837C238.346 236.708 228.361 291.364 211.649 301.52C205.552 305.225 198.772 304.413 192.151 302.852C187.868 301.843 181.032 301.115 178.571 297.137C178.065 293.443 180.118 288.569 181.14 284.985C177.617 288.798 174.058 292.578 170.464 296.325L155.65 292.26C142.357 288.637 72.9751 272.167 67 268.332C68.442 258.571 77.2929 245.26 81.3147 235.802C84.6113 228.049 104.777 171.231 103.197 167.281C102.401 165.29 99.6574 164.613 99.3859 162.297C98.5931 155.535 104.015 137.568 107.826 131.991C119.015 115.618 140.365 131.518 155.268 128.404C160.627 127.284 164.568 123.569 167.105 118.838C170.304 112.876 171.266 105.601 172.614 99.0284C175.559 84.654 181.197 45.5887 188.426 35.1361C192.453 29.3131 197.809 27.2724 204.542 26Z" fill="black"/>
<path d="M204.6 34.0261C205.475 34.0647 206.348 34.1253 207.219 34.2088C211.212 34.6035 215.287 36.1449 217.77 39.4516C220.118 42.5811 220.795 46.5745 220.564 50.3962C220.183 56.7195 217.618 63.4927 215.849 69.5736C210.983 86.299 204.34 103.889 201.392 121.024C194.879 158.889 239.857 148.784 248.095 161.242C252.552 167.982 247.715 181.377 246.028 188.763C225.767 183.536 204.882 179.713 184.422 175.253L107.868 158.808C109.466 152.614 109.989 145.057 112.859 139.343C120.159 124.81 145.758 140.599 161.185 135.088C166.965 133.023 171.338 128.738 174.231 123.392C180.042 112.651 185.481 76.5919 188.481 62.0587C189.832 55.5178 190.808 48.5565 193.821 42.5361C196.324 37.5375 199.411 35.707 204.6 34.0261Z" fill="#FED100"/>
<path d="M100.492 207.146C102.116 207.126 103.739 207.069 105.364 207.128C114.432 207.458 117.193 219.071 122.536 224.636C125.146 227.355 128.448 229.095 132.075 230.033C147.584 234.044 153.754 218.055 167.01 218.686C176.51 219.138 179.578 233.421 185.261 239.457C198.107 253.097 207.29 240.731 220.044 241.441C222.59 241.583 225.651 242.564 227.297 244.459C227.088 245.942 226.825 247.417 226.507 248.881C224.16 259.715 216.664 288.68 207.687 294.217C201.54 298.009 193.621 294.926 187.273 293.281C188.777 287.372 189.967 281.444 191.093 275.453C191.436 273.426 191.9 271.269 191.952 269.215C192.004 267.192 191.374 266.181 190.078 264.743C183.875 264.651 172.941 282.265 167.736 287.222C148.495 281.071 128.27 276.442 108.671 271.492C111.85 265.749 118.835 254.182 117.35 247.657C116.128 246.201 116.067 245.986 114.137 245.49C108.263 249.39 103.891 262.921 100.339 269.311C92.473 267.337 84.5094 265.656 76.603 263.842C86.6283 245.45 93.7014 226.895 100.492 207.146Z" fill="#FED100"/>
<path d="M111.234 167.824C153.504 178.062 196.543 186.265 239.066 195.492C236.152 209.07 233.069 222.611 229.819 236.112C225.266 233.984 221.288 232.998 216.253 232.747C211.778 234.103 207.443 236.883 202.671 236.975C201.21 237.004 199.757 237.03 198.3 236.89C185.757 235.682 187.356 224.128 180.871 216.652C178.253 213.634 174.7 212.018 170.846 211.201C154.452 207.726 148.552 223.551 136.022 222.21C126.127 221.15 124.275 212.04 118.935 205.477C114.627 200.182 109.724 199.208 103.193 198.599C106.392 188.466 109.423 178.308 111.234 167.824Z" fill="#FEFEFE"/>
</svg>
